X:1
T:Nu‘uanu Pali, 87.87.87 D
T:Nu‘uanu Pali, 87.87.87 D
T:Daniel Brink Towner, 1903
T:Public Domain Courtesy of the Cyber Hymnal™
C:Daniel Brink Towner, 1903
Z:Public Domain
Z:Courtesy of the Cyber Hymnal™
%%score ( 1 2 ) ( 3 4 )
L:1/8
Q:1/4=97
M:6/8
K:D
V:1 treble 
V:2 treble 
V:3 bass 
V:4 bass 
V:1
 [DF]/[EG]/ | [FA]2 [FA] [GB]2 [DF] | [CA]3 [DA]2 [EA]/[DA]/ | [CG]2 [DF] [EG]2 [CA] | %4
 [DF]3- [DF]2 [DF]/[EG]/ | [FA]2 [FA] [GB]2 [DF] | [CA]3 [DA]2 [EA]/[DA]/ | %7
 [D^G]2 [Ed] [Ec]2 [DB] | [CA]3- [CA]2 [CA]/[CA]/ | ([EG][^DF])[EG] [Gc]2 [GB] | %10
 [GB]3 [FA]2 [FA]/[FA]/ | ([EG][^DF])[EG] [Gc]2 [GB] | [FA]3- [FA]2 [FA]/[FA]/ | %13
 d2 [Ad] [Ge]2 [Gd] | [Gc]3 [GB]2 [^EB]/[EB]/ | [FA]2 [DF] [CE]2 [GA] | [FA]3- [FA]2 [DF]/[DF]/ | %17
 ([FA][^E^G])[FA] [=GB]2 [DF] | [CA]3 [CA]2 [DA]/[DA]/ | (B^A)[DB] [^Ge]2 [Gd] | %20
 [Ac]3- [Ac]2 [Gc]/[Gc]/ | [Fd]2 [Gd] [Ad]2 [Gd] | [Dd]3 !fermata![B,D]2 [A,D]/[CE]/ | %23
 (FA)[EG] [DF]2 [CE] | D3- D2 |] %25
V:2
 x | x6 | x6 | x6 | x6 | x6 | x6 | x6 | x6 | x6 | x6 | x6 | x6 | (FG) x4 | x6 | x6 | x6 | x6 | x6 | %19
 D2 x4 | x6 | x6 | x6 | D2 x4 | D3- D2 |] %25
V:3
 [D,A,]/[D,A,]/ | [D,D]2 [D,D] [D,D]2 [D,A,] | [E,A,]3 [F,A,]2 [G,A,]/[F,A,]/ | %3
 [E,A,]2 [D,A,] [A,,A,]2 [A,,A,] | [D,A,]3- [D,A,]2 [D,A,]/[D,A,]/ | [D,D]2 [D,D] [D,D]2 [D,A,] | %6
 [E,A,]3 [F,A,]2 [G,A,]/[F,A,]/ | [E,B,]2 [E,B,] [E,A,]2 [E,^G,] | [A,,A,]3- [A,,A,]2 A,/A,/ | %9
 A,2 A, A,2 A, | [D,D]3 [D,D]2 [D,D]/[D,D]/ | (C^B,)[A,C] [A,E]2 [A,C] | %12
 [D,D]3- [D,D]2 [D,D]/[D,D]/ | A,2 [F,D] [G,B,]2 [G,B,] | [G,B,]3 [G,D]2 [^G,D]/[G,D]/ | %15
 [A,D]2 A, [A,,A,]2 [A,,C] | [D,D]3- [D,D]2 [D,A,]/[D,A,]/ | [D,D]2 [D,D] [D,D]2 [D,A,] | %18
 [E,A,]3 [G,A,]2 [F,A,]/[F,A,]/ | [E,^G,]2 [E,G,] [E,B,]2 [E,E] | [A,E]3- [A,E]2 A,/A,/ | %21
 [D,A,]2 [E,A,] [F,D]2 [G,B,] | [F,A,]3 !fermata![^E,^G,]2 [F,A,]/[=E,A,]/ | %23
 ([D,A,][F,D])[G,B,] A,2 [A,,G,] | [D,F,]3- [D,F,]2 |] %25
V:4
 x | x6 | x6 | x6 | x6 | x6 | x6 | x6 | x5 A,/A,/ | A,2 A, A,2 A, | x6 | A,2 x4 | x6 | (D,E,) x4 | %14
 x6 | x2 A, x3 | x6 | x6 | x6 | x6 | x5 A,/A,/ | x6 | x6 | x3 A,2 x | x5 |] %25

